X:30
T:Paddy Wack
S:John Moore's Book 1
Z:Transcribed by Paul Barber-Riley  April 2016
M:6/8
L:1/8
K:G
%%VWML: Moore1-4493-p19-0
F:http://www.vwml.org/record/Moore1/4493/p19
ABd gfg|edc BAG|GBd gfg|fdd d2 e/f/|
geg fdB|cec dBG|GBd cAc|BGG G3:|
BBB ccc|dBG A2G|Bcd efg|fdd d2 e/f/|
geg fdB|cec dBG|GBd cAc|BGG G3:|
